Newaita/actions/22/format-justify-left.svg

<svg height="22" viewBox="0 0 22 22" width="22" xmlns="http://www.w3.org/2000/svg"><g fill="#424242"><path d="m19.554688 4.71875h-17.28125c-.25 0-.453126-.203125-.453126-.453125v-.910156c0-.25.203126-.453125.453126-.453125h17.28125c.253906 0 .457031.203125.457031.453125v.910156c0 .25-.203125.453125-.457031.453125zm0 0"/><path d="m15.917969 19.726562h-13.644531c-.25 0-.453126-.203124-.453126-.453124v-.910157c0-.25.203126-.453125.453126-.453125h13.644531c.25 0 .453125.203125.453125.453125v.910157c0 .25-.203125.453124-.453125.453124zm0 0"/><path d="m15.917969 14.726562h-13.644531c-.25 0-.453126-.203124-.453126-.457031v-.910156c0-.25.203126-.453125.453126-.453125h13.644531c.25 0 .453125.203125.453125.453125v.910156c0 .253907-.203125.457031-.453125.457031zm0 0"/><path d="m15.917969 9.722656h-13.644531c-.25 0-.453126-.203125-.453126-.453125v-.910156c0-.253906.203126-.457031.453126-.457031h13.644531c.25 0 .453125.203125.453125.457031v.910156c0 .25-.203125.453125-.453125.453125zm0 0"/></g></svg>

<svg xmlns="http://www.w3.org/2000/svg" xmlns:xlink="http://www.w3.org/1999/xlink" width="22px" height="22px" viewBox="0 0 22 22" version="1.1">
<g id="surface1">
     <defs>
  <style id="current-color-scheme" type="text/css">
   .ColorScheme-Text { color:#424242; } .ColorScheme-Highlight { color:#eeeeee; }
  </style>
 </defs>
<path style="fill:currentColor" class="ColorScheme-Text" d="M 19.554688 4.71875 L 2.273438 4.71875 C 2.023438 4.71875 1.820312 4.515625 1.820312 4.265625 L 1.820312 3.355469 C 1.820312 3.105469 2.023438 2.902344 2.273438 2.902344 L 19.554688 2.902344 C 19.808594 2.902344 20.011719 3.105469 20.011719 3.355469 L 20.011719 4.265625 C 20.011719 4.515625 19.808594 4.71875 19.554688 4.71875 Z M 19.554688 4.71875 "/>
     <defs>
  <style id="current-color-scheme" type="text/css">
   .ColorScheme-Text { color:#424242; } .ColorScheme-Highlight { color:#eeeeee; }
  </style>
 </defs>
<path style="fill:currentColor" class="ColorScheme-Text" d="M 15.917969 19.726562 L 2.273438 19.726562 C 2.023438 19.726562 1.820312 19.523438 1.820312 19.273438 L 1.820312 18.363281 C 1.820312 18.113281 2.023438 17.910156 2.273438 17.910156 L 15.917969 17.910156 C 16.167969 17.910156 16.371094 18.113281 16.371094 18.363281 L 16.371094 19.273438 C 16.371094 19.523438 16.167969 19.726562 15.917969 19.726562 Z M 15.917969 19.726562 "/>
     <defs>
  <style id="current-color-scheme" type="text/css">
   .ColorScheme-Text { color:#424242; } .ColorScheme-Highlight { color:#eeeeee; }
  </style>
 </defs>
<path style="fill:currentColor" class="ColorScheme-Text" d="M 15.917969 14.726562 L 2.273438 14.726562 C 2.023438 14.726562 1.820312 14.523438 1.820312 14.269531 L 1.820312 13.359375 C 1.820312 13.109375 2.023438 12.90625 2.273438 12.90625 L 15.917969 12.90625 C 16.167969 12.90625 16.371094 13.109375 16.371094 13.359375 L 16.371094 14.269531 C 16.371094 14.523438 16.167969 14.726562 15.917969 14.726562 Z M 15.917969 14.726562 "/>
     <defs>
  <style id="current-color-scheme" type="text/css">
   .ColorScheme-Text { color:#424242; } .ColorScheme-Highlight { color:#eeeeee; }
  </style>
 </defs>
<path style="fill:currentColor" class="ColorScheme-Text" d="M 15.917969 9.722656 L 2.273438 9.722656 C 2.023438 9.722656 1.820312 9.519531 1.820312 9.269531 L 1.820312 8.359375 C 1.820312 8.105469 2.023438 7.902344 2.273438 7.902344 L 15.917969 7.902344 C 16.167969 7.902344 16.371094 8.105469 16.371094 8.359375 L 16.371094 9.269531 C 16.371094 9.519531 16.167969 9.722656 15.917969 9.722656 Z M 15.917969 9.722656 "/>
</g>
</svg>
